X: 784
T: Shengli buwang gongchandang
%%abc-version 2.0
%%abcx-abcm2ps-target-version 5.9.1 (29 Sep 2008)
%%abc-creator hum2abc beta
%%abcx-conversion-date 2013/10/02 07:52:30
%%abc-edited-by Helmut Schaffrath
%%humdrum-veritas 1167676618
%%humdrum-veritas-data 1684092678
%%continueall 1
%%barnumbers 0
L: 1/16
M: 2/4
K: F
c2 c d f2 e d [I:setbarnb 1]| 
c dc4d2 | 
f2 e d c d A G | 
F6E D | 
G Ac4f2 | 
d c A G F2 E D | 
c c B A G2 A D | 
C8 |]  



